assets/img/ons-logo-pos-cy.svg

<?xml version="1.0" encoding="UTF-8"?>
<svg width="269px" height="25px" viewBox="0 0 269 25" version="1.1" xmlns="http://www.w3.org/2000/svg" xmlns:xlink="http://www.w3.org/1999/xlink">
    <!-- Generator: Sketch 52.2 (67145) - http://www.bohemiancoding.com/sketch -->
    <title>Cy</title>
    <desc>Created with Sketch.</desc>
    <defs>
        <polygon id="path-1" points="0.071552795 0.311254546 23.5778385 0.311254546 23.5778385 23.8691273 0.071552795 23.8691273"></polygon>
    </defs>
    <g id="Cy" stroke="none" stroke-width="1" fill="none" fill-rule="evenodd">
        <g id="Group">
            <g id="Group-4">
                <mask id="mask-2" fill="white">
                    <use xlink:href="#path-1"></use>
                </mask>
                <g id="Clip-2"></g>
                <path d="M2.20501863,0.311254658 C2.20501863,0.311254658 0.00357763975,0.305291925 0.00357763975,3.0362236 C0.00357763975,3.21391304 0.00357763975,2.72735404 0.00357763975,3.47269565 C0.213465839,5.97227329 0.983850932,8.53267081 1.85918012,10.7830062 C3.09227329,8.83677019 4.22161491,7.61560248 6.0235528,6.0748323 C9.59045963,3.0207205 13.7774907,1.24024845 20.2947578,0.311254546 L2.20501863,0.311254658 Z M0.00357763975,14.0982857 C0.360149068,13.3612919 0.62131677,12.787677 1.03036025,12.0912298 C0.560496894,10.9690435 0.294559006,10.407354 9.32413868e-18,9.21122981 C-0.00119254658,11.1598509 0.00357763975,12.4752298 0.00357763975,14.0982857 Z" id="Fill-1" fill="#98B74D" mask="url(#mask-2)"></path>
                <path d="M4.29674534,17.6162981 C3.43930435,16.6133665 2.70469565,15.5245714 2.07741615,14.3797267 C1.27960248,15.8906832 0.599850932,17.5161242 0.00357763975,19.2357764 C0.00357763975,21.9106584 0.00357763975,23.8294658 0.00357763975,23.8294658 L13.734559,23.8568944 C9.38772671,22.5343602 6.77485714,20.5225342 4.29674534,17.6162981 Z M23.4621615,1.80074534 C16.0051677,2.51150311 10.9129938,4.64019876 7.26499379,7.75751553 C5.30802484,9.43185093 4.09997516,10.8187826 2.82991304,13.0488447 C5.68963975,18.6025342 11.5056894,23.2701615 20.6036273,23.8664348 L20.7825093,23.8688199 C20.7825093,23.8688199 23.5778385,23.9630311 23.5778385,20.8528696 L23.5778385,1.77808696 C23.5420621,1.78643478 23.5027081,1.7971677 23.4621615,1.80074534 Z" id="Fill-3" fill="#193956" mask="url(#mask-2)"></path>
            </g>
            <path d="M32.5931429,19.5805714 C31.072,19.5805714 29.8045714,19.2457143 29.1154286,18.8514286 L29.6045714,17.6708571 C30.184,17.9851429 31.1988571,18.32 32.3028571,18.32 C34.1142857,18.32 35.4537143,17.2171429 35.4537143,15.624 C35.4537143,12.2365714 29.424,13.6354286 29.424,9.34285714 C29.424,7.31542857 31.0537143,5.52342857 33.68,5.52342857 C35.0377143,5.52342857 36.1782857,5.89714286 36.7588571,6.25257143 L36.3051429,7.31542857 C35.816,7 34.8388571,6.66628571 33.8605714,6.66628571 C32.176,6.66628571 31.072,7.70857143 31.072,9.20571429 C31.072,12.4525714 37.1565714,11.016 37.1565714,15.5245714 C37.1565714,17.8868571 35.2365714,19.5805714 32.5931429,19.5805714" id="Fill-5" fill="#193956"></path>
            <path d="M49.8205714,19.3234286 L48.4251429,19.3234286 L46.0171429,11.5085714 C45.8182857,10.8788571 45.728,10.2297143 45.728,10.2297143 L45.6914286,10.2297143 C45.6914286,10.2297143 45.6194286,10.8788571 45.4205714,11.5085714 L42.9394286,19.3234286 L41.5451429,19.3234286 L38.2125714,8.71314286 L39.8605714,8.71314286 L42.0514286,16.5085714 C42.2502857,17.2171429 42.3234286,17.8674286 42.3234286,17.8674286 L42.36,17.8674286 C42.36,17.8674286 42.432,17.2365714 42.6491429,16.5085714 L45.0571429,8.71314286 L46.5062857,8.71314286 L48.8422857,16.5085714 C49.024,17.1188571 49.1508571,17.8674286 49.1508571,17.8674286 L49.1874286,17.8674286 C49.1874286,17.8674286 49.2948571,17.0994286 49.4582857,16.5085714 L51.6857143,8.71314286 L53.152,8.71314286 L49.8205714,19.3234286" id="Fill-6" fill="#193956"></path>
            <path d="M57.8845714,23.5565714 L56.1645714,23.5565714 L58.0662857,19.3234286 L54.1542857,8.71314286 L55.8571429,8.71314286 L58.4102857,16.5291429 C58.6457143,17.2365714 58.7725714,17.9657143 58.7725714,17.9657143 L58.8091429,17.9657143 C58.8091429,17.9657143 58.9714286,17.2365714 59.2068571,16.5291429 L61.8331429,8.71314286 L63.2811429,8.71314286 L57.8845714,23.5565714" id="Fill-7" fill="#193956"></path>
            <path d="M71.3611429,9.63771429 C70.8914286,9.52 70.312,9.46171429 69.7142857,9.46171429 C66.944,9.46171429 65.9291429,11.7451429 65.9291429,14.0674286 C65.9291429,16.7657143 66.9611429,18.5371429 69.4788571,18.5371429 C70.2754286,18.5371429 70.9817143,18.3588571 71.3611429,18.1222857 L71.3611429,9.63771429 Z M69.3885714,19.5805714 C66.0377143,19.5805714 64.3542857,17.4925714 64.3542857,14.2057143 C64.3542857,10.6617143 66.3817143,8.536 69.3885714,8.536 C70.1302857,8.536 70.8365714,8.63428571 71.3611429,8.77142857 L71.3611429,3.86971429 L72.9005714,3.86971429 L72.9005714,18.8514286 C72.1588571,19.2651429 70.9451429,19.5805714 69.3885714,19.5805714 Z" id="Fill-8" fill="#193956"></path>
            <path d="M81.9588571,9.63771429 C81.4891429,9.52 80.9097143,9.46171429 80.3108571,9.46171429 C77.5417143,9.46171429 76.5268571,11.7451429 76.5268571,14.0674286 C76.5268571,16.7657143 77.5588571,18.5371429 80.0765714,18.5371429 C80.8731429,18.5371429 81.5794286,18.3588571 81.9588571,18.1222857 L81.9588571,9.63771429 Z M79.9851429,19.5805714 C76.6354286,19.5805714 74.952,17.4925714 74.952,14.2057143 C74.952,10.6617143 76.9794286,8.536 79.9851429,8.536 C80.728,8.536 81.4342857,8.63428571 81.9588571,8.77142857 L81.9588571,3.86971429 L83.4994286,3.86971429 L83.4994286,18.8514286 C82.7565714,19.2651429 81.5428571,19.5805714 79.9851429,19.5805714 Z" id="Fill-9" fill="#193956"></path>
            <path d="M88.4651429,9.65828571 L88.4651429,19.3234286 L86.9257143,19.3234286 L86.9257143,9.65828571 L85.3497143,9.65828571 L85.3497143,8.71314286 L86.9257143,8.71314286 L86.9257143,7.17828571 C86.9257143,5.248 88.0662857,3.85028571 90.3108571,3.85028571 C90.4742857,3.85028571 90.6742857,3.86971429 90.6742857,3.86971429 L90.6742857,4.85371429 L90.4925714,4.85371429 C89.424,4.85371429 88.4651429,5.544 88.4651429,7 L88.4651429,8.71314286 L90.6742857,8.71314286 L90.6742857,9.65828571 L88.4651429,9.65828571" id="Fill-10" fill="#193956"></path>
            <path d="M98.0822857,13.2411429 C95.0217143,13.5954286 93.0125714,14.1268571 93.0125714,16.4102857 C93.0125714,17.9851429 94.1714286,18.6548571 95.9451429,18.6548571 C96.8331429,18.6548571 97.5931429,18.4777143 98.0822857,18.2205714 L98.0822857,13.2411429 Z M95.7828571,19.5805714 C92.832,19.5805714 91.5097143,18.3394286 91.5097143,16.4491429 C91.5097143,13.5554286 94.4971429,12.7485714 98.0822857,12.4137143 L98.0822857,11.7645714 C98.0822857,10.0514286 96.9234286,9.52 95.3474286,9.52 C94.352,9.52 93.2297143,9.816 92.5954286,10.1302857 L92.1965714,9.18628571 C92.8662857,8.87085714 94.1714286,8.45714286 95.6194286,8.45714286 C97.7748571,8.45714286 99.5497143,9.32457143 99.5497143,11.9017143 L99.5497143,18.8514286 C98.68,19.3051429 97.3577143,19.5805714 95.7828571,19.5805714 Z" id="Fill-11" fill="#193956"></path>
            <polyline id="Fill-12" fill="#193956" points="110.049143 13.6045714 110.049143 19.4914286 107.677714 19.4914286 107.677714 13.6045714 103.530286 5.94628571 106.065143 5.94628571 108.945143 11.7154286 108.981714 11.7154286 111.950857 5.94628571 114.233143 5.94628571 110.049143 13.6045714"></polyline>
            <path d="M118.058286,19.7668571 C116.737143,19.7668571 115.486857,19.3931429 114.853714,18.9988571 L115.451429,17.5428571 C115.904,17.8571429 116.809143,18.1725714 117.769143,18.1725714 C118.928,18.1725714 119.851429,17.4251429 119.851429,16.5188571 C119.851429,13.9988571 115.196571,15.1805714 115.196571,11.7154286 C115.196571,10.1405714 116.610286,8.60571429 118.909714,8.60571429 C120.213714,8.60571429 121.172571,8.93942857 121.897143,9.37371429 L121.299429,10.6914286 C120.955429,10.4548571 120.249143,10.0811429 119.362286,10.0811429 C118.185143,10.0811429 117.460571,10.7897143 117.460571,11.5965714 C117.460571,13.96 122.204571,12.9165714 122.204571,16.4594286 C122.204571,18.1531429 120.593143,19.7668571 118.058286,19.7668571" id="Fill-13" fill="#193956"></path>
            <path d="M127.970286,19.728 C125.741714,19.728 124.891429,18.2902857 124.891429,16.8537143 L124.891429,10.2582857 L123.405714,10.2582857 L123.405714,8.88114286 L124.891429,8.88114286 L124.891429,6.49828571 L127.154286,5.86857143 L127.154286,8.88114286 L129.218286,8.88114286 L129.218286,10.2582857 L127.154286,10.2582857 L127.154286,16.7348571 C127.154286,17.5622857 127.643429,18.2114286 128.603429,18.2114286 C128.820571,18.2114286 129.002286,18.1725714 129.218286,18.1142857 L129.218286,19.5108571 C129.002286,19.6091429 128.548571,19.728 127.970286,19.728" id="Fill-14" fill="#193956"></path>
            <path d="M136.990857,13.6251429 C134.364571,13.9005714 132.609143,14.3942857 132.609143,16.4411429 C132.609143,17.8765714 133.621714,18.488 135.216,18.488 C135.958857,18.488 136.592,18.3302857 136.990857,18.1325714 L136.990857,13.6251429 Z M135.035429,19.7668571 C131.92,19.7668571 130.453714,18.5268571 130.453714,16.4982857 C130.453714,13.6445714 133.441143,12.8777143 136.990857,12.5622857 L136.990857,11.9508571 C136.990857,10.4948571 135.995429,10.0617143 134.546286,10.0617143 C133.514286,10.0617143 132.336,10.3577143 131.666286,10.672 L131.141714,9.37371429 C131.883429,9.05714286 133.277714,8.60571429 134.962286,8.60571429 C137.316571,8.60571429 139.126857,9.56914286 139.126857,12.2868571 L139.126857,18.9988571 C138.221714,19.4525714 136.792,19.7668571 135.035429,19.7668571 Z" id="Fill-15" fill="#193956"></path>
            <path d="M147.932571,10.1211429 C147.534857,10.0228571 147.081143,9.96342857 146.574857,9.96342857 C144.238857,9.96342857 143.314286,11.9314286 143.314286,14.1965714 C143.314286,16.7748571 144.220571,18.3108571 146.374857,18.3108571 C147.026286,18.3108571 147.606857,18.1531429 147.932571,17.9748571 L147.932571,10.1211429 Z M146.304,19.7668571 C142.88,19.7668571 140.996571,17.7794286 140.996571,14.3337143 C140.996571,10.8491429 143.061714,8.68342857 146.049143,8.68342857 C146.792,8.68342857 147.461714,8.78171429 147.932571,8.90057143 L147.932571,4.03771429 L150.196571,4.03771429 L150.196571,18.9988571 C149.326857,19.4525714 148.041143,19.7668571 146.304,19.7668571 Z" id="Fill-16" fill="#193956"></path>
            <path d="M156.845714,9.984 C155.289143,9.984 154.058286,11.2228571 154.112,13.8605714 L159.326857,13.1337143 C159.326857,10.9474286 158.349714,9.984 156.845714,9.984 Z M154.257143,15.0022857 C154.474286,17.1097143 155.634286,18.1725714 157.589714,18.1725714 C158.910857,18.1725714 159.978286,17.8571429 160.577143,17.5622857 L161.12,18.9988571 C160.378286,19.3737143 159.091429,19.7668571 157.389714,19.7668571 C154.148571,19.7668571 152.066286,17.7988571 152.066286,14.1577143 C152.066286,10.6525714 154.003429,8.60571429 156.937143,8.60571429 C159.906286,8.60571429 161.518857,10.4742857 161.518857,14.0388571 L154.257143,15.0022857 Z" id="Fill-17" fill="#193956"></path>
            <path d="M169.962286,10.2788571 C169.618286,10.1005714 169.129143,9.944 168.404571,9.944 C166.340571,9.944 165.325714,11.6171429 165.325714,14.3142857 C165.325714,16.9325714 166.340571,18.3497143 168.296,18.3497143 C168.929143,18.3497143 169.582857,18.2114286 169.962286,17.9954286 L169.962286,10.2788571 Z M167.444571,24 C165.741714,24 164.276571,23.6262857 163.478857,23.2525714 L164.076571,21.7942857 C164.729143,22.1108571 165.96,22.4045714 167.117714,22.4045714 C169.110857,22.4045714 169.962286,21.3817143 169.962286,19.9051429 L169.962286,19.216 C169.491429,19.472 168.64,19.648 167.626286,19.648 C164.856,19.648 163.008,17.6217143 163.008,14.4125714 C163.008,10.9862857 164.873143,8.60571429 168.512,8.60571429 C170.088,8.60571429 171.500571,8.95885714 172.208,9.37371429 L172.208,19.688 C172.208,22.4845714 170.269714,24 167.444571,24 Z" id="Fill-18" fill="#193956"></path>
            <path d="M180.541714,13.6251429 C177.916571,13.9005714 176.16,14.3942857 176.16,16.4411429 C176.16,17.8765714 177.173714,18.488 178.766857,18.488 C179.508571,18.488 180.144,18.3302857 180.541714,18.1325714 L180.541714,13.6251429 Z M178.585143,19.7668571 C175.470857,19.7668571 174.004571,18.5268571 174.004571,16.4982857 C174.004571,13.6445714 176.992,12.8777143 180.541714,12.5622857 L180.541714,11.9508571 C180.541714,10.4948571 179.546286,10.0617143 178.096,10.0617143 C177.065143,10.0617143 175.886857,10.3577143 175.217143,10.672 L174.692571,9.37371429 C175.435429,9.05714286 176.829714,8.60571429 178.513143,8.60571429 C180.867429,8.60571429 182.678857,9.56914286 182.678857,12.2868571 L182.678857,18.9988571 C181.773714,19.4525714 180.342857,19.7668571 178.585143,19.7668571 Z" id="Fill-19" fill="#193956"></path>
            <path d="M189.257143,19.7668571 C186.250286,19.7668571 184.928,18.3691429 184.928,16.1062857 L184.928,8.88114286 L187.193143,8.88114286 L187.193143,16.2228571 C187.193143,17.3462857 187.898286,18.2114286 189.365714,18.2114286 C190.216,18.2114286 190.885714,18.0742857 191.302857,17.8571429 L191.302857,8.88114286 L193.566857,8.88114286 L193.566857,18.9988571 C192.733714,19.4125714 191.195429,19.7668571 189.257143,19.7668571" id="Fill-20" fill="#193956"></path>
            <path d="M206.246857,19.7668571 C202.336,19.7668571 199.709714,17.2662857 199.709714,12.6411429 C199.709714,8.25142857 202.571429,5.67085714 206.355429,5.67085714 C208.148571,5.67085714 209.270857,6.02628571 210.032,6.43885714 L209.452571,7.87657143 C208.998857,7.62057143 207.894857,7.36457143 206.662857,7.36457143 C204.074286,7.36457143 202.172571,8.97942857 202.172571,12.7382857 C202.172571,16.2834286 203.946286,18.1325714 206.157714,18.1325714 C206.988571,18.1325714 207.714286,17.9954286 208.021714,17.8194286 L208.021714,13.192 L205.649143,13.192 L205.649143,11.7748571 L210.321143,11.7748571 L210.321143,18.9988571 C209.434286,19.472 208.075429,19.7668571 206.246857,19.7668571" id="Fill-21" fill="#193956"></path>
            <path d="M224.269714,19.4914286 L222.168,19.4914286 L220.086857,12.5622857 C219.886857,11.8925714 219.816,11.184 219.816,11.184 L219.779429,11.184 C219.779429,11.184 219.706286,11.8925714 219.507429,12.5622857 L217.353143,19.4914286 L215.252571,19.4914286 L211.992,8.88114286 L214.328,8.88114286 L216.194286,15.968 C216.393143,16.7542857 216.448,17.4251429 216.448,17.4251429 L216.483429,17.4251429 C216.483429,17.4251429 216.555429,16.7542857 216.790857,15.968 L218.909714,8.88114286 L220.901714,8.88114286 L222.948571,15.968 C223.147429,16.6571429 223.238857,17.4251429 223.238857,17.4251429 L223.274286,17.4251429 C223.274286,17.4251429 223.346286,16.6377143 223.528,15.968 L225.448,8.88114286 L227.530286,8.88114286 L224.269714,19.4914286" id="Fill-22" fill="#193956"></path>
            <polygon id="Fill-23" fill="#193956" points="229.165714 19.4925714 231.430857 19.4925714 231.430857 4.03771429 229.165714 4.03771429"></polygon>
            <path d="M239.852571,13.6251429 C237.227429,13.9005714 235.470857,14.3942857 235.470857,16.4411429 C235.470857,17.8765714 236.485714,18.488 238.077714,18.488 C238.820571,18.488 239.453714,18.3302857 239.852571,18.1325714 L239.852571,13.6251429 Z M237.896,19.7668571 C234.782857,19.7668571 233.315429,18.5268571 233.315429,16.4982857 C233.315429,13.6445714 236.304,12.8777143 239.852571,12.5622857 L239.852571,11.9508571 C239.852571,10.4948571 238.857143,10.0617143 237.406857,10.0617143 C236.376,10.0617143 235.198857,10.3577143 234.529143,10.672 L234.004571,9.37371429 C234.746286,9.05714286 236.140571,8.60571429 237.824,8.60571429 C240.178286,8.60571429 241.989714,9.56914286 241.989714,12.2868571 L241.989714,18.9988571 C241.083429,19.4525714 239.652571,19.7668571 237.896,19.7668571 Z" id="Fill-24" fill="#193956"></path>
            <path d="M250.795429,10.1211429 C250.397714,10.0228571 249.944,9.96342857 249.437714,9.96342857 C247.101714,9.96342857 246.177143,11.9314286 246.177143,14.1965714 C246.177143,16.7748571 247.083429,18.3108571 249.237714,18.3108571 C249.889143,18.3108571 250.469714,18.1531429 250.795429,17.9748571 L250.795429,10.1211429 Z M249.165714,19.7668571 C245.742857,19.7668571 243.859429,17.7794286 243.859429,14.3337143 C243.859429,10.8491429 245.924571,8.68342857 248.912,8.68342857 C249.654857,8.68342857 250.324571,8.78171429 250.795429,8.90057143 L250.795429,4.03771429 L253.059429,4.03771429 L253.059429,18.9988571 C252.189714,19.4525714 250.904,19.7668571 249.165714,19.7668571 Z" id="Fill-25" fill="#193956"></path>
            <path d="M259.781714,10.0617143 C257.826286,10.0617143 257.246857,12.1085714 257.246857,14.176 C257.246857,16.2434286 257.862857,18.2114286 259.781714,18.2114286 C261.737143,18.2114286 262.316571,16.2434286 262.316571,14.176 C262.316571,12.1085714 261.737143,10.0617143 259.781714,10.0617143 Z M259.781714,19.7668571 C256.539429,19.7668571 254.928,17.3645714 254.928,14.1965714 C254.928,11.0262857 256.539429,8.60571429 259.781714,8.60571429 C263.022857,8.60571429 264.617143,11.0262857 264.617143,14.1965714 C264.617143,17.3645714 263.022857,19.7668571 259.781714,19.7668571 Z" id="Fill-26" fill="#193956"></path>
            <polygon id="Fill-27" fill="#193956" points="266.577143 19.4925714 268.84 19.4925714 268.84 4.03771429 266.577143 4.03771429"></polygon>
        </g>
    </g>
</svg>

<svg width="269" height="25" xmlns="http://www.w3.org/2000/svg" xmlns:xlink="http://www.w3.org/1999/xlink"><defs><path id="a" d="M.07.31h23.51v23.56H.07z"/></defs><g fill="none" fill-rule="evenodd"><mask id="b" fill="#fff"><use xlink:href="#a"/></mask><path d="M2.2.31S0 .31 0 3.04v.43c.21 2.5.98 5.06 1.86 7.31a19.09 19.09 0 0 1 4.16-4.7C9.6 3.01 13.78 1.23 20.3.3H2.21zM0 14.1c.36-.74.62-1.31 1.03-2C.56 10.96.29 10.4 0 9.2v4.89z" fill="#98B74D" mask="url(#b)"/><path d="M4.3 17.62c-.86-1-1.6-2.1-2.22-3.24A34.81 34.81 0 0 0 0 19.24v4.59l13.73.03a18.55 18.55 0 0 1-9.43-6.24zM23.46 1.8c-7.45.71-12.55 2.84-16.2 5.96a18.15 18.15 0 0 0-4.43 5.29c2.86 5.55 8.68 10.22 17.77 10.82h.18s2.8.1 2.8-3.02V1.78l-.12.02z" fill="#193956" mask="url(#b)"/><path d="M32.6 19.58a7.49 7.49 0 0 1-3.48-.73l.48-1.18a6 6 0 0 0 2.7.65c1.81 0 3.15-1.1 3.15-2.7 0-3.38-6.03-1.98-6.03-6.28 0-2.02 1.63-3.82 4.26-3.82 1.36 0 2.5.38 3.08.73l-.45 1.07a4.97 4.97 0 0 0-2.45-.65c-1.68 0-2.79 1.04-2.79 2.54 0 3.24 6.09 1.8 6.09 6.31 0 2.37-1.92 4.06-4.57 4.06M49.82 19.32h-1.4l-2.4-7.81c-.2-.63-.3-1.28-.3-1.28h-.03s-.07.65-.27 1.28l-2.48 7.81h-1.4l-3.33-10.6h1.65l2.2 7.79c.19.7.26 1.36.26 1.36h.04s.07-.63.29-1.36l2.4-7.8h1.46l2.33 7.8c.18.6.31 1.36.31 1.36h.04s.1-.77.27-1.36l2.23-7.8h1.46l-3.33 10.61M57.88 23.56h-1.72l1.9-4.24-3.9-10.6h1.7l2.55 7.8c.24.72.36 1.45.36 1.45h.04s.16-.73.4-1.44l2.62-7.82h1.45l-5.4 14.85M71.36 9.64a7 7 0 0 0-1.65-.18c-2.77 0-3.78 2.29-3.78 4.6 0 2.7 1.03 4.48 3.55 4.48.8 0 1.5-.18 1.88-.42V9.64zm-1.97 9.94c-3.35 0-5.04-2.09-5.04-5.37 0-3.55 2.03-5.67 5.04-5.67.74 0 1.45.1 1.97.23v-4.9h1.54v14.98c-.74.42-1.95.73-3.51.73zM81.96 9.64a7 7 0 0 0-1.65-.18c-2.77 0-3.78 2.29-3.78 4.6 0 2.7 1.03 4.48 3.55 4.48.8 0 1.5-.18 1.88-.42V9.64zm-1.97 9.94c-3.35 0-5.04-2.09-5.04-5.37 0-3.55 2.03-5.67 5.04-5.67.74 0 1.44.1 1.97.23v-4.9h1.54v14.98c-.74.42-1.96.73-3.51.73zM88.47 9.66v9.66h-1.54V9.66h-1.58V8.7h1.58V7.18c0-1.93 1.14-3.33 3.38-3.33l.36.02v.98h-.18c-1.07 0-2.02.7-2.02 2.15v1.71h2.2v.95h-2.2M98.08 13.24c-3.06.36-5.07.89-5.07 3.17 0 1.58 1.16 2.24 2.94 2.24.88 0 1.64-.17 2.13-.43v-4.98zm-2.3 6.34c-2.95 0-4.27-1.24-4.27-3.13 0-2.9 2.99-3.7 6.57-4.04v-.65c0-1.7-1.16-2.24-2.73-2.24-1 0-2.12.3-2.75.61l-.4-.94a8.57 8.57 0 0 1 3.42-.73c2.15 0 3.93.86 3.93 3.44v6.95c-.87.46-2.2.73-3.77.73zM110.05 13.6v5.89h-2.37V13.6l-4.15-7.65h2.54l2.88 5.77h.03l2.97-5.77h2.28l-4.18 7.65M118.06 19.77a6.65 6.65 0 0 1-3.2-.77l.6-1.46c.44.32 1.35.63 2.3.63 1.17 0 2.1-.74 2.1-1.65 0-2.52-4.66-1.34-4.66-4.8 0-1.58 1.41-3.11 3.71-3.11 1.3 0 2.26.33 2.99.76l-.6 1.32a3.52 3.52 0 0 0-1.94-.6c-1.17 0-1.9.7-1.9 1.5 0 2.37 4.74 1.33 4.74 4.87 0 1.7-1.6 3.3-4.14 3.3M127.97 19.73c-2.23 0-3.08-1.44-3.08-2.88v-6.6h-1.48V8.89h1.48V6.5l2.26-.63v3.01h2.07v1.38h-2.07v6.47c0 .83.5 1.48 1.45 1.48.22 0 .4-.04.62-.1v1.4c-.22.1-.67.22-1.25.22M137 13.63c-2.64.27-4.4.76-4.4 2.81 0 1.44 1.02 2.05 2.62 2.05.74 0 1.37-.16 1.77-.36v-4.5zm-1.96 6.14c-3.12 0-4.59-1.24-4.59-3.27 0-2.86 3-3.62 6.54-3.94v-.6c0-1.47-1-1.9-2.44-1.9-1.04 0-2.21.3-2.88.61l-.53-1.3c.74-.31 2.14-.76 3.82-.76 2.36 0 4.17.96 4.17 3.68v6.7c-.9.46-2.34.78-4.1.78zM147.93 10.12c-.4-.1-.85-.16-1.36-.16-2.33 0-3.26 1.97-3.26 4.24 0 2.57.91 4.11 3.06 4.11.66 0 1.24-.16 1.56-.34v-7.85zm-1.63 9.65c-3.42 0-5.3-2-5.3-5.44 0-3.48 2.06-5.65 5.05-5.65.74 0 1.41.1 1.88.22V4.04h2.27V19a8.5 8.5 0 0 1-3.9.77zM156.85 9.98c-1.56 0-2.8 1.24-2.74 3.88l5.22-.73c0-2.18-.98-3.15-2.48-3.15zm-2.6 5.02c.22 2.11 1.38 3.17 3.34 3.17 1.32 0 2.39-.31 2.99-.6l.54 1.43c-.74.37-2.03.77-3.73.77-3.24 0-5.32-1.97-5.32-5.61 0-3.5 1.93-5.55 4.87-5.55 2.97 0 4.58 1.86 4.58 5.43l-7.26.96zM169.96 10.28a3.3 3.3 0 0 0-1.56-.34c-2.06 0-3.07 1.68-3.07 4.37 0 2.62 1.01 4.04 2.97 4.04.63 0 1.28-.14 1.66-.35v-7.72zM167.44 24c-1.7 0-3.16-.37-3.96-.75l.6-1.46c.65.32 1.88.61 3.04.61 2 0 2.84-1.02 2.84-2.5v-.68c-.47.25-1.32.43-2.33.43-2.77 0-4.62-2.03-4.62-5.24 0-3.42 1.86-5.8 5.5-5.8 1.58 0 3 .35 3.7.76V19.7c0 2.8-1.94 4.31-4.77 4.31zM180.54 13.63c-2.62.27-4.38.76-4.38 2.81 0 1.44 1.01 2.05 2.6 2.05.75 0 1.38-.16 1.78-.36v-4.5zm-1.95 6.14c-3.12 0-4.59-1.24-4.59-3.27 0-2.86 3-3.62 6.54-3.94v-.6c0-1.47-1-1.9-2.44-1.9-1.03 0-2.21.3-2.88.61l-.53-1.3c.75-.31 2.14-.76 3.82-.76 2.36 0 4.17.96 4.17 3.68v6.7c-.9.46-2.34.78-4.1.78zM189.26 19.77c-3.01 0-4.33-1.4-4.33-3.66V8.88h2.26v7.34c0 1.13.7 2 2.18 2a4.4 4.4 0 0 0 1.93-.36V8.88h2.27V19c-.84.41-2.37.77-4.31.77M206.25 19.77c-3.91 0-6.54-2.5-6.54-7.13 0-4.39 2.86-6.97 6.65-6.97 1.79 0 2.91.36 3.67.77l-.58 1.44a6.67 6.67 0 0 0-2.79-.52c-2.59 0-4.49 1.62-4.49 5.38 0 3.54 1.78 5.4 3.99 5.4.83 0 1.55-.14 1.86-.32v-4.63h-2.37v-1.42h4.67V19c-.89.47-2.24.77-4.07.77M224.27 19.5h-2.1l-2.08-6.94c-.2-.67-.27-1.38-.27-1.38h-.04s-.07.71-.27 1.38l-2.16 6.93h-2.1L212 8.9h2.34l1.86 7.08c.2.78.26 1.46.26 1.46h.03s.08-.68.31-1.46l2.12-7.09h2l2.04 7.09c.2.69.29 1.46.29 1.46h.03s.08-.8.26-1.46l1.92-7.09h2.08l-3.26 10.61M229.17 19.49h2.26V4.04h-2.26zM239.85 13.63c-2.62.27-4.38.76-4.38 2.81 0 1.44 1.02 2.05 2.6 2.05.75 0 1.38-.16 1.78-.36v-4.5zm-1.95 6.14c-3.12 0-4.58-1.24-4.58-3.27 0-2.86 2.98-3.62 6.53-3.94v-.6c0-1.47-1-1.9-2.44-1.9-1.03 0-2.21.3-2.88.61l-.53-1.3c.75-.31 2.14-.76 3.82-.76 2.36 0 4.17.96 4.17 3.68v6.7c-.9.46-2.34.78-4.1.78zM250.8 10.12c-.4-.1-.86-.16-1.36-.16-2.34 0-3.26 1.97-3.26 4.24 0 2.57.9 4.11 3.06 4.11.65 0 1.23-.16 1.56-.34v-7.85zm-1.63 9.65c-3.43 0-5.31-2-5.31-5.44 0-3.48 2.06-5.65 5.05-5.65.74 0 1.41.1 1.89.22V4.04h2.26V19a8.5 8.5 0 0 1-3.9.77zM259.78 10.06c-1.95 0-2.53 2.05-2.53 4.12 0 2.06.61 4.03 2.53 4.03 1.96 0 2.54-1.97 2.54-4.03 0-2.07-.58-4.12-2.54-4.12zm0 9.7c-3.24 0-4.85-2.4-4.85-5.56 0-3.17 1.6-5.6 4.85-5.6 3.24 0 4.84 2.43 4.84 5.6 0 3.16-1.6 5.57-4.84 5.57zM266.58 19.49h2.26V4.04h-2.26z" fill="#193956"/></g></svg>
